!!!!SEGMENT: pl-sa--68-a-ii-8--002_mrozowski-tadeusz--missa-ex-g-gloria.krn
!!!cenid: 17xx:327
!!!COM: Mrozowski, Tadeusz
!!!COM-rismid: pe30020313
!!!CDT: <1790->1810
!!!CNT:
!!!OPR: Missa ex G
!!!OTL: Kyrie
!!!OMV: 001
!!!PDT:
!!!AGN: Sacred; Mass
!!!SMS-siglum: PL-SA
!!!SMS-shelfmark: 68/A II 8
!!!SMS-shelfwork: 001-001 M
!!!NIFC-rismid: 1001035348
!!!URL-scan: http://bc.bdsandomierz.pl/dlibra/publication/1339/edition/1307/content
!!!ONB-nifc: UWAGA: części Mszy: Kyrie, Gloria, Symphonia post Epistolam, Credo, Tantum Ergo Sacramentum, Sanctus, Agnus, Dona nobis, Presto
**kern	**kern	**dynam	**kern	**dynam	**kern	**text
*part4	*part3	*part3	*part2	*part2	*part1	*part1
*staff4	*staff3	*	*staff2	*	*staff1	*staff1
*I"Basso	*I"Violino Secondo	*	*I"Violino. Primo.	*	*I"Canto Solo.	*
*I'bc	*I'vl 2	*	*I'vl 1	*	*I'C solo	*
*ICstr	*ICstr	*	*ICstr	*	*ICvox	*
*clefF4	*clefG2	*	*clefG2	*	*clefC1	*
*k[f#]	*k[f#]	*	*k[f#]	*	*k[f#]	*
*G:	*G:	*	*G:	*	*G:	*
*M4/4	*M4/4	*	*M4/4	*	*M4/4	*
*met(c)	*met(c)	*	*met(c)	*	*met(c)	*
*	*	*	*	*below	*	*
=1	=1	=1	=1	=1	=1	=1
!LO:TX:a:t=P:problem: mixed beam	!	!	!LO:TX:a:t=allo.	!LO:DY:t=piano	!LO:TX:a:t=allo	!
8GG/L	4.g/	.	4.g/	p	4.g/	Glo-
8G\	.	.	.	.	.	.
8G\	.	.	.	.	.	.
!	!LO:SIC:o:s:v=błędne oznacenie grupy niemiarowej&colon; 2	!	!LO:SIC:o:s:v=błędne oznacenie grupy niemiarowej&colon; 2	!	!	!
8G/J	24a/LL	.	24a/LL	.	24a/LL	-ri-
.	24g/	.	24g/	.	24g/	-a
.	24f#/JJ	.	24f#/JJ	.	24f#/JJ	.
*2\right	*	*	*	*	*	*
*tremolo	*	*	*	*	*	*
8G\L	8g/L	.	8g/L	.	8g\L	in
8G\	8f#/	.	8a/	.	8a\	ex-
8G\	8g/	.	8b/	.	8b\	-cel-
8G\J	8a/J	.	8cc/J	.	8cc\J	-sis
*Xtremolo	*	*	*	*	*	*
=2	=2	=2	=2	=2	=2	=2
!	!	!LO:DY:rj	!	!	!	!
4D\	4b\	f	4dd|\	.	4dd\	De-
4G\	4g\	.	4b|\	.	4b\	-o
2r	8b\L	.	8gg\L	.	2r	.
.	8dd\	.	(8ff#\	.	.	.
.	8cc\	.	8ee\	.	.	.
.	8b\J	.	8dd\J)	.	.	.
=3	=3	=3	=3	=3	=3	=3
4D\	4b\	.	4dd|\	.	4dd\	De-
4G\	4g\	.	4b|\	.	4b\	-o
2r	8b\L	.	(8gg\L	.	2r	.
.	8dd\	.	8ff#\	.	.	.
.	8cc\	.	8ee\	.	.	.
.	8b\J	.	8dd\J)	.	.	.
=4	=4	=4	=4	=4	=4	=4
4D\	(4b\	.	(4dd\	.	4dd\	in
4D\	4cc\)	.	4ee\)	.	4ee\	ex-
4D\	(4f#/	.	(4a\	.	4a\	-cel-
4F#\	4a/)	.	4cc\)	.	4cc\	-sis
=5	=5	=5	=5	=5	=5	=5
4F#\	4a/	.	4cc\	.	4cc\	De-
4G\	4g/	.	4b\	.	4b\	-o
2r	8g/L	.	(8b\L	.	2r	.
.	8a/	.	8cc\	.	.	.
.	8b/	.	8dd\	.	.	.
.	8g/J	.	8b\J)	.	.	.
=6	=6	=6	=6	=6	=6	=6
4D\	(4b\	.	(4dd\	.	4dd\	in
4D\	4cc\)	.	4ee\)	.	4ee\	ex-
4D\	(4f#/	.	(4a\	.	4a\	-cel-
4F#\	4a/)	.	4cc\)	.	4cc\	-sis
=7	=7	=7	=7	=7	=7	=7
4G\	8g/L	.	8b/L	.	8b\L	De-
.	8d/J	.	8a/J	.	8a\J	.
4GG/	4B/	.	4g/	.	4g/	-o
2r	4B/	.	8g|>/L	.	2r	.
.	.	.	(8b/	.	.	.
.	4B/	.	8b/	.	.	.
.	.	.	8dd/J)	.	.	.
!LO:LB:g=original	!	!	!LO:LB:g=original	!	!	!
=8	=8!|:	=8	=8!|:	=8	=8	=8
*tremolo	*	*	*	*	*	*
8G\L	4d/ 4B/	.	4gg/ 4b/ 4G/	.	4gg\	ei
8G\	.	.	.	.	.	.
8G\	4d/ 4B/	.	4gg/ 4b/ 4G/	.	4gg\	in
8G\J	.	.	.	.	.	.
8G\L	4d/ 4B/	.	4gg/ 4b/ 4G/	.	4gg\	ter-
8G\	.	.	.	.	.	.
8G\	4d/ 4B/	.	4gg/ 4b/ 4G/	.	4gg\	-ra-
8G\J	.	.	.	.	.	.
*Xtremolo	*	*	*	*	*	*
!	!	!	!	!	!LO:LB:g=original	!
=9	=9	=9	=9	=9	=9	=9
*	*tremolo	*	*	*	*	*
4G\	8d/ 8B/L	.	4gg\	.	4gg\	-pax.
.	8d/ 8B/	.	.	.	.	.
4GG/	8d/ 8B/	.	8g/L	f	4r	.
.	8d/ 8B/J	.	8g/J	.	.	.
2r	8d/ 8B/L	.	8b\L	.	2r	.
.	8d/ 8B/	.	8b\	.	.	.
.	8d/ 8B/	.	8dd\	.	.	.
.	8d/ 8B/J	.	8dd\J	.	.	.
*	*Xtremolo	*	*	*	*	*
=10	=10:|!	=10	=10:|!	=10	=10	=10
*tremolo	*	*	*	*	*	*
!	!LO:TX:a:t=P:problem: repetycja tt tt. 8-9	!	!LO:TX:a:t=P:problem: repetycja tt. 8-9	!	!	!
8G\L	4d/yy 4B/yy	.	4gg/yy 4b/yy 4G/yy	.	4gg\	et
8G\	.	.	.	.	.	.
8G\	4d/yy 4B/yy	.	4gg/yy 4b/yy 4G/yy	.	4gg\	in
8G\J	.	.	.	.	.	.
8G\L	4d/yy 4B/yy	.	4gg/yy 4b/yy 4G/yy	.	4gg\	ter-
8G\	.	.	.	.	.	.
8G\	4d/yy 4B/yy	.	4gg/yy 4b/yy 4G/yy	.	4gg\	-ra
8G\J	.	.	.	.	.	.
*Xtremolo	*	*	*	*	*	*
=11	=11	=11	=11	=11	=11	=11
*	*tremolo	*	*	*	*	*
4G\	8dyy/ 8Byy/L	.	4gg\yy	.	4gg\	pax.
.	8dyy/ 8Byy/	.	.	.	.	.
4GG/	8dyy/ 8Byy/	.	8g/Lyy	fyy	4r	.
.	8dyy/ 8Byy/J	.	8g/Jyy	.	.	.
2r	8dyy/ 8Byy/L	.	8b\Lyy	.	2r	.
.	8dyy/ 8Byy/	.	8b\yy	.	.	.
.	8dyy/ 8Byy/	.	8dd\yy	.	.	.
.	8dyy/ 8Byy/J	.	8dd\Jyy	.	.	.
*	*Xtremolo	*	*	*	*	*
=12	=12	=12	=12	=12	=12	=12
*	*2\right	*	*2\right	*	*2\right	*
8r	2cc\	p	2ee\	p	2ee\	pax
8C|\L	.	.	.	.	.	.
8E|\	.	.	.	.	.	.
8G|\J	.	.	.	.	.	.
!LO:TX:a:t=P:problem: mixed beam	!	!	!	!	!	!
8c|\L	8cc\L	.	8ee\L	.	8dd\L	bo-
8B|\	8b\J	.	8dd\J	.	8cc\J	.
8c|\	4a\	.	4cc\	.	4b\	-ne
8C|/J	.	.	.	.	.	.
=13	=13	=13	=13	=13	=13	=13
8r	2b\	.	2dd\	.	2dd\	pax
8BB\L	.	.	.	.	.	.
8D\	.	.	.	.	.	.
8G\J	.	.	.	.	.	.
!LO:TX:a:t=P:problem: mixed beam	!	!	!	!	!	!
8G|\L	8b/L	.	8dd\L	.	8cc\L	bo-
8F#|\	8a/J	.	8cc\J	.	8b\J	.
8G|\	4g/	.	4b\	.	4a\	-ne
8GG|/J	.	.	.	.	.	.
!	!LO:LB:g=original	!	!	!	!	!
=14	=14	=14	=14	=14	=14	=14
4F#\	4a'/	.	4cc\	.	4cc\	bo-
4D\	4f#'/	.	4a\	.	4a\	-ne
4F#\	4cc'/	.	4aa\	.	4aa\	Vo-
4D\	4a'/	.	4cc\	.	4cc\	-lun-
=15	=15	=15	=15	=15	=15	=15
4G\	4a/	.	4cc\	.	4cc\	-ta-
4GG/	4g/	.	4b\	.	4b\	-tis
2r	8g/L	f	(8b\L	.	2r	.
.	8a/	.	8dd\	.	.	.
.	8b/	.	8cc\	.	.	.
.	8g/J	.	8b\J)	.	.	.
!LO:PB:g=original	!	!	!	!	!	!
=16	=16	=16	=16	=16	=16	=16
8r	2cc\	p	2ee\	.	2ee\	pax
8C|/L	.	.	.	.	.	.
8E|/	.	.	.	.	.	.
8G|/J	.	.	.	.	.	.
4c\	8cc\L	.	8ee\L	.	8ee\L	bo-
.	8b\J	.	8dd\J	.	8dd\J	.
4C/	4a/	.	4cc\	.	4cc\	-ne
=17	=17	=17	=17	=17	=17	=17
8r	2b/	.	2dd\	.	2dd\	pax
8BB/L	.	.	.	.	.	.
8D/	.	.	.	.	.	.
8G/J	.	.	.	.	.	.
4G\	8b/L	.	8dd\L	.	8dd\L	bo-
.	8a/J	.	8cc\J	.	8cc\J	.
4GG/	4g/	.	4b\	.	4b\	-ne
=18	=18	=18	=18	=18	=18	=18
4F#\	4a|/	.	4cc\	.	4cc\	Vo-
4D\	4f#'/	.	4a\	.	4a\	-lun-
4F#\	4cc'/	.	4aa\	.	4aa\	.
4D\	4a'/	.	4cc\	.	4cc\	-ta-
!	!	!	!	!	!LO:LB:g=original	!
=19	=19	=19	=19	=19	=19	=19
4G\	4a/	.	4cc\	.	4cc\	.
4GG/	4g/	.	4b\	.	4b\	-tis
!LO:TX:a:t=P:problem: mixed beam	!	!	!	!	!	!
8GG/L	2r	.	2r	.	2r	.
8G\	.	.	.	.	.	.
8F#\	.	.	.	.	.	.
8D\J	.	.	.	.	.	.
=20!|:	=20	=20	=20	=20	=20	=20
!	!	!	!LO:TX:a:t=Solo.	!	!LO:TX:a:t=17	!
4D\	4f#/	pp	4a\	pp	00r	.
4F#\	4f#/	.	4a\	.	.	.
4D\	4f#/	.	4a\	.	.	.
4F#\	4a/	.	4cc\	.	.	.
=21	=21	=21	=21	=21	=21	=21
4D\	8a/L	.	8cc\L	.	.	.
.	8g/J	.	8b\J	.	.	.
4G\	4g/	.	4b\	.	.	.
4D\	8g/L	.	8b\L	.	.	.
.	8b/	.	8dd\	.	.	.
4G\	8a/	.	8cc\	.	.	.
.	8g/J	.	8b\J	.	.	.
!	!	!	!LO:LB:g=original	!	!	!
=22	=22	=22	=22	=22	=22	=22
4D\	4f#/	.	4a/	.	.	.
4F#\	4f#/	.	4a/	.	.	.
4D\	4f#/	.	4a/	.	.	.
4F#\	4a/	.	4cc/	.	.	.
=23	=23	=23	=23	=23	=23	=23
4D\	8a/L	.	8cc\L	.	.	.
.	8g/J	.	8b\J	.	.	.
4G\	4g/	.	4b\	.	.	.
4D\	4g/	.	4b\	.	.	.
4G\	4g/	.	4b\	.	.	.
!LO:LB:g=original	!	!	!	!	!	!
=24:|!	=24	=24	=24	=24	=24	=24
!LO:TX:a:t=P:problem: repetycja tt.20-23	!	!	!	!	!	!
4D\yy	4f#/	.	4a\	.	00r	.
4F#\yy	4f#/	.	4a\	.	.	.
4D\yy	4f#/	.	4a\	.	.	.
4F#\yy	4a/	.	4cc\	.	.	.
=25	=25	=25	=25	=25	=25	=25
4D\yy	8a/L	.	8cc\L	.	.	.
.	8g/J	.	8b\J	.	.	.
4G\yy	4g/	.	4b\	.	.	.
4D\yy	8g/L	.	8b\L	.	.	.
.	8b/	.	8dd\	.	.	.
4G\yy	8a/	.	8cc\	.	.	.
.	8g/J	.	8b\J	.	.	.
=26	=26	=26	=26	=26	=26	=26
4D\yy	4f#/	.	4a/	.	.	.
4F#\yy	4f#/	.	4a/	.	.	.
!	!LO:LB:g=original	!	!	!	!	!
4D\yy	4f#/	.	4a/	.	.	.
4F#\yy	4a/	.	4cc/	.	.	.
=27	=27	=27	=27	=27	=27	=27
4D\yy	8a/L	.	8cc/L	.	.	.
.	8g/J	.	8b/J	.	.	.
4G\yy	4g/	.	4b/	.	.	.
4D\yy	2r	.	2r	.	.	.
4G\yy	.	.	.	.	.	.
=28	=28	=28	=28	=28	=28	=28
4.G\	4.g/	f	4.gg\	f	00r	.
8F#\	8f#/	.	8ff#\	.	.	.
8G\L	8g/L	.	8gg|\L	.	.	.
8A\	8a/	.	8aa|\	.	.	.
8B\	8b/	.	8bb|\	.	.	.
8D\J	8d/J	.	8dd|\J	.	.	.
=29	=29	=29	=29	=29	=29	=29
4.E\	4.e/	.	4.ee\	.	.	.
8D\	8d/	.	8dd\	.	.	.
8E\L	8e/L	.	8ee\L	.	.	.
8F#\	8f#/	.	8ff#\	.	.	.
8G\	8g/	.	8gg\	.	.	.
8BB\J	8B/J	.	8b\J	.	.	.
=30	=30	=30	=30	=30	=30	=30
8C|/L	8c/L	.	8cc'\L	.	.	.
8BB|/	8B/	.	8b'\	.	.	.
8C|/	8c/	.	8cc'\	.	.	.
8AA|/J	8A/J	.	8a'\J	.	.	.
8D|/L	8d/L	.	8dd'\L	.	.	.
8C|/	8c/	.	8cc'\	.	.	.
8D|/	8d/	.	8dd'\	.	.	.
8BB|/J	8B/J	.	8b'\J	.	.	.
=31	=31	=31	=31	=31	=31	=31
8E|\L	8e/L	.	8ee'\L	.	.	.
8D|\	8d/	.	8dd'\	.	.	.
8E|\	8e/	.	8ee'\	.	.	.
8C|\J	8c/J	.	8cc'\J	.	.	.
8F#|\L	8f#/L	.	8ff#'\L	.	.	.
8E|\	8e/	.	8ee'\	.	.	.
8F#|\	8f#/	.	8ff#'\	.	.	.
8D|\J	8d/J	.	8dd'\J	.	.	.
!	!	!	!LO:LB:g=original	!	!	!
=32	=32	=32	=32	=32	=32	=32
8G\L	8g/L	.	8gg'\L	.	00r	.
8A\	8a/	.	8aa'\	.	.	.
8B\	8b/	.	8bb'\	.	.	.
8D\J	8d/J	.	8dd'\J	.	.	.
!LO:TX:a:t=P:problem: mixed beam	!	!	!	!	!	!
8E\L	8e/L	.	8ee'\L	.	.	.
8F#\	8f#/	.	8ff#'\	.	.	.
8G\	8g/	.	8gg'\	.	.	.
8BB/J	8B/J	.	8b'\J	.	.	.
=33	=33	=33	=33	=33	=33	=33
8C/L	8c/L	.	8cc'\L	.	.	.
8D/	8d/	.	8dd'\	.	.	.
8E/	8e/	.	8ee'\	.	.	.
8C/J	8c/J	.	8cc'\J	.	.	.
!LO:LB:g=original	!	!	!	!	!	!
8AA/L	8A/L	.	8a'\L	.	.	.
8BB/	8B/	.	8b'\	.	.	.
8C/	8c/	.	8cc'\	.	.	.
8AA/J	8A/J	.	8a'\J	.	.	.
=34	=34	=34	=34	=34	=34	=34
*	*tremolo	*	*	*	*	*
!	!	!	!LO:TX:a:t=P:problem: mixed beam	!	!	!
4GG/	8d/ 8B/L	.	8g|/L	.	.	.
.	8d/ 8B/	.	8gg|\	.	.	.
8r	8d/ 8B/	.	8ff#|\	.	.	.
8G\	8d/ 8B/J	.	8gg|\J	.	.	.
8F#\L	8d/ 8c/L	.	8ee'\L	.	.	.
8E\	8d/ 8c/	.	8cc'\	.	.	.
8F#\	8d/ 8c/	.	8a'\	.	.	.
8D\J	8d/ 8c/J	.	8f#'\J	.	.	.
=35	=35	=35	=35	=35	=35	=35
!	!	!	!LO:TX:a:t=P:problem: mixed beam	!	!	!
4GG/	8d/ 8B/L	.	8g'/L	.	.	.
.	8d/ 8B/	.	8gg'\	.	.	.
4G\	8d/ 8B/	.	8ff#'\	.	.	.
.	8d/ 8B/J	.	8gg'\J	.	.	.
8F#\L	8d/ 8c/L	.	8ee'\L	.	.	.
8E\	8d/ 8c/	.	8cc'\	.	.	.
8F#\	8d/ 8c/	.	8a'\	.	.	.
8D\J	8d/ 8c/J	.	8f#'\J	.	.	.
*	*Xtremolo	*	*	*	*	*
=36	=36	=36	=36	=36	=36	=36
!LO:TX:a:t=P:problem: mixed beam	!	!	!	!	!LO:TX:b:t=36.	!
8GG/L	4d/ 4B/	.	4g/	.	1r	.
8G\	.	.	.	.	.	.
8D\	4d/ 4B/	.	4g/	.	.	.
8BB\J	.	.	.	.	.	.
4GG/	4d/ 4B/	.	4g/	.	.	.
!	!LO:TX:a:t=36.	!	!LO:TX:a:t=36.	!	!	!
4r	4r	.	4r	.	.	.
!LO:LB:g=original	!LO:LB:g=original	!	!	!	!	!
=37||	=37||	=37||	=37||	=37||	=37||	=37||
*k[]	*k[]	*	*k[]	*	*k[]	*
*M3/8	*M3/8	*	*M3/8	*	*M3/8	*
!LO:TX:a:t=Lau-\ndamus	!LO:TX:b:t=Laudamus.	!	!LO:TX:b:t=Laudamus.	!	!LO:TX:a:t=29.	!
!LO:TX:a:t=andante.	!LO:TX:a:t=andante	!	!LO:TX:a:t=andante	!	!LO:TX:a:t=andante	!
8r	16e/LL	.	4cc\	.	4.r	.
.	16g/	.	.	.	.	.
8C/L	16e/	.	.	.	.	.
.	16g/	.	.	.	.	.
8C/J	16e/	.	8cc\	.	.	.
.	16g/JJ	.	.	.	.	.
=38	=38	=38	=38	=38	=38	=38
*tremolo	*rep	*	*	*	*	*
!	!LO:TX:a:t=P:problem: repetycja taktu znakiem ÷	!	!	!	!	!
8C/L	16e/LL	.	8gg\L	.	4.r	.
.	16g/	.	.	.	.	.
8C/	16e/	.	8ee\	.	.	.
.	16g/	.	.	.	.	.
8C/J	16e/	.	8cc\J	.	.	.
.	16g/JJ	.	.	.	.	.
*Xtremolo	*Xrep	*	*	*	*	*
=39	=39	=39	=39	=39	=39	=39
8r	16fn/LL	p	8cc#X\L	.	4.r	.
.	16g/	.	.	.	.	.
8D/L	16f/	.	8dd\J	.	.	.
.	16g/	.	.	.	.	.
8D/J	16f/	.	16dd\LL	.	.	.
.	16g/JJ	.	16cc#X\JJ	.	.	.
=40	=40	=40	=40	=40	=40	=40
*tremolo	*rep	*	*	*	*	*
!	!LO:TX:a:t=P:problem: repetycja taktu znakiem ÷	!	!	!	!	!
8D/L	16f/LL	.	4.dd\	.	4.r	.
.	16g/	.	.	.	.	.
8D/	16f/	.	.	.	.	.
.	16g/	.	.	.	.	.
8D/J	16f/	.	.	.	.	.
.	16g/JJ	.	.	.	.	.
*Xtremolo	*Xrep	*	*	*	*	*
=41	=41	=41	=41	=41	=41	=41
8r	16d/LL	.	4b\	.	4.r	.
.	16g/	.	.	.	.	.
8GG/L	16d/	.	.	.	.	.
.	16g/	.	.	.	.	.
8GG/J	16d/	.	8b\	.	.	.
.	16g/JJ	.	.	.	.	.
=42	=42	=42	=42	=42	=42	=42
*tremolo	*rep	*	*	*	*	*
!	!LO:TX:a:t=P:problem: repetycja taktu znakiem ÷	!	!	!	!	!
8GG/L	16d/LL	.	8gg'\L	.	4.r	.
.	16g/	.	.	.	.	.
8GG/	16d/	.	8dd'\	.	.	.
.	16g/	.	.	.	.	.
8GG/J	16d/	.	8b'\J	.	.	.
.	16g/JJ	.	.	.	.	.
*Xtremolo	*Xrep	*	*	*	*	*
!	!	!	!LO:LB:g=original	!	!	!
=43	=43	=43	=43	=43	=43	=43
8r	16e/LL	.	8b\L	.	4.r	.
.	16g/	.	.	.	.	.
8C/L	16e/	.	8ccn\J	.	.	.
.	16g/	.	.	.	.	.
8C/J	16e/	.	16cc\LL	.	.	.
.	16g/JJ	.	16b\JJ	.	.	.
=44	=44	=44	=44	=44	=44	=44
*tremolo	*rep	*	*	*	*	*
!	!LO:TX:a:t=P:problem: repetycja taktu znakiem ÷	!	!	!	!	!
8C/L	16e/LL	.	4.cc\	.	4.r	.
.	16g/	.	.	.	.	.
8C/	16e/	.	.	.	.	.
.	16g/	.	.	.	.	.
8C/J	16e/	.	.	.	.	.
.	16g/JJ	.	.	.	.	.
*Xtremolo	*Xrep	*	*	*	*	*
=45	=45!|:	=45	=45!|:	=45	=45	=45
8r	4dd\	p	4ff\	.	4.r	.
!LO:TX:b:t=pizzicato	!	!	!	!	!	!
8G\L	.	.	.	.	.	.
8G\J	8dd\	.	8ff\	.	.	.
=46	=46	=46	=46	=46	=46	=46
8r	8dd\L	.	8ff\L	.	4.r	.
!	!LO:TX:a:t=h	!	!	!	!	!
8G\L	8b\	.	8dd\	.	.	.
8G\J	8dd\J	.	8ff\J	.	.	.
!LO:LB:g=original	!	!	!	!	!	!
=47	=47	=47	=47	=47	=47	=47
8r	8cc\L	.	8ee\L	.	4.r	.
!LO:TX:a:t=P:problem: mixed beam	!	!	!	!	!	!
8c\L	8ff\	.	8aa\	.	.	.
8C/J	8ee\J	.	8gg\J	.	.	.
=48	=48	=48	=48	=48	=48	=48
8r	4dd\	.	4gg\	.	4.r	.
!LO:TX:a:t=P:problem: mixed beam	!	!	!	!	!	!
8c\L	.	.	.	.	.	.
8C/J	8cc\	.	8ee\	.	.	.
=49	=49:|!	=49	=49:|!	=49	=49	=49
!	!LO:TX:a:t=P:problem: repetycja tt. 45-48	!	!LO:TX:a:t=P:problem: repetycja tt.45-48	!	!	!
8r	4dd\yy	.	4ff\yy	.	4.r	.
8G\L	.	.	.	.	.	.
8G\J	8dd\yy	.	8ff\yy	.	.	.
=50	=50	=50	=50	=50	=50	=50
8r	8dd\Lyy	.	8ff\Lyy	.	4.r	.
!	!LO:TX:a:t=h	!	!	!	!	!
8G\L	8b\yy	.	8dd\yy	.	.	.
8G\J	8dd\Jyy	.	8ff\Jyy	.	.	.
=51	=51	=51	=51	=51	=51	=51
8r	8cc\Lyy	.	8ee\Lyy	.	4.r	.
!LO:TX:a:t=P:problem: mixed beam	!	!	!	!	!	!
8c\L	8ff\yy	.	8aa\yy	.	.	.
8C/J	8ee\Jyy	.	8gg\Jyy	.	.	.
=52	=52	=52	=52	=52	=52	=52
8r	4dd\yy	.	4gg\yy	.	4.r	.
!LO:TX:a:t=P:problem: mixed beam	!	!	!	!	!	!
8c\L	.	.	.	.	.	.
8C/J	8cc\yy	.	8ee\yy	.	.	.
=53	=53	=53	=53	=53	=53	=53
!LO:TX:b:t=col arco	!LO:SIC:s:o:v:t=skreślenie przez pomyłkę?	!	!	!	!	!
8F\	16ff\LL	f	(16aa\LL	.	4.r	.
.	16ee\	.	16gg\	.	.	.
8r	16ff\	.	16aa\	.	.	.
.	16gg\	.	16bb\	.	.	.
8F\	16aa\	.	16ccc\	.	.	.
.	16ff\JJ	.	16aa\JJ)	.	.	.
=54	=54	=54	=54	=54	=54	=54
8E\L	16ff\LL	.	16aa\LL	.	4.r	.
.	16ee\JJ	.	16gg\JJ	.	.	.
8C\	4ee\	.	4ggT\	.	.	.
8C\J	.	.	.	.	.	.
=55	=55	=55	=55	=55	=55	=55
8D\	16ee\LL	.	(16ff\LL	.	4.r	.
!	!LO:TX:a:t=c	!	!	!	!	!
.	16cc\	.	16ee\	.	.	.
8r	16dd\	.	16ff\	.	.	.
.	16ee\	.	16gg\	.	.	.
8D\	16ff\	.	16aa\	.	.	.
!	!LO:TX:a:t=d	!	!	!	!	!
.	16dd\JJ	.	16ff\JJ)	.	.	.
!LO:LB:g=original	!LO:LB:g=original	!	!	!	!	!
=56	=56	=56	=56	=56	=56	=56
8r	16dd\LL	.	16ff\LL	.	4.r	.
.	16cc\JJ	.	16ee\JJ	.	.	.
8C/L	4cc\	.	4eeT\	.	.	.
8C/J	.	.	.	.	.	.
=57	=57	=57	=57	=57	=57	=57
*tremolo	*	*	*	*	*	*
8C/L	16ee\LL	.	16gg\LL	.	4.r	.
.	(16dd\	.	(16ff\	.	.	.
8C/	16cc\	.	16ee\	.	.	.
.	16dd\	.	16ff\	.	.	.
8C/J	16ee\	.	16gg\)	.	.	.
.	16dd\JJ)	.	16ff\JJ	.	.	.
*Xtremolo	*	*	*	*	*	*
=58	=58	=58	=58	=58	=58	=58
8C/	16cc\LL	.	16ee\LL	.	4.r	.
.	(16ee\	.	16ccc\	.	.	.
8r	16dd\	.	16bb\	.	.	.
.	16ee\	.	16ccc\	.	.	.
8r	16ff\)	.	16ddd\	.	.	.
.	16ee\JJ	.	16ccc\JJ	.	.	.
=59	=59	=59	=59	=59	=59	=59
8r	16aa\LL	.	16ccc\LL	.	4.r	.
.	16ff\JJ	.	16aa\JJ	.	.	.
8F\L	4ffT\	.	4aaT\	.	.	.
8F\J	.	.	.	.	.	.
=60	=60	=60	=60	=60	=60	=60
8C/	16cc\LL	.	16ee\LL	.	4.r	.
.	(16ee\	.	16ccc\	.	.	.
8r	16dd\	.	16bb\	.	.	.
.	16ee\	.	16ccc\	.	.	.
8r	16ff\)	.	16ddd\	.	.	.
.	16ee\JJ	.	16ccc\JJ	.	.	.
!	!	!	!LO:LB:g=original	!	!	!
=61	=61	=61	=61	=61	=61	=61
8r	16ee\LL	.	16ccc\LL	.	4.r	.
.	16ee\JJ	.	16gg\JJ	.	.	.
8C/L	4eet\	.	4ggT\	.	.	.
8C/J	.	.	.	.	.	.
=62	=62	=62	=62	=62	=62	=62
*tremolo	*	*	*	*	*	*
8C/L	8.ee\L	.	8.gg\L	.	4.r	.
8C/	.	.	.	.	.	.
.	16ff\Jk	.	16aa\Jk	.	.	.
8C/J	16ee\LL	.	16gg\LL	.	.	.
.	16dd\JJ	.	16ff\JJ	.	.	.
=63	=63	=63	=63	=63	=63	=63
8C/L	8cc|\L	.	8ee\L	.	4.r	.
8C/	(16cc\L	.	16ee\L	.	.	.
.	16dd\	.	16ff\	.	.	.
8C/J	16ee\	.	16gg\	.	.	.
.	16ff\JJ)	.	16aa\JJ	.	.	.
=64	=64	=64	=64	=64	=64	=64
8C/L	8.ee\L	.	8.gg\L	.	4.r	.
8C/	.	.	.	.	.	.
.	16ff\Jk	.	16aa\Jk	.	.	.
8C/J	16ee\LL	.	16gg\LL	.	.	.
.	16dd\JJ	.	16ff\JJ	.	.	.
*Xtremolo	*	*	*	*	*	*
=65	=65	=65	=65	=65	=65	=65
4C/	4cc\	.	4ee\	.	4.r	.
8r	8r	.	8r	.	.	.
!LO:LB:g=original	!	!	!	!	!	!
=66||	=66||	=66||	=66||	=66||	=66||	=66||
8r	16e/LL	pp	4cc\	pp	4cc\	La-
.	16g/	.	.	.	.	.
8C/L	16e/	.	.	.	.	.
.	16g/	.	.	.	.	.
8C/J	16e/	.	8cc\	.	8cc\	-u-
.	16g/JJ	.	.	.	.	.
=67	=67	=67	=67	=67	=67	=67
*tremolo	*rep	*	*	*	*	*
!	!LO:TX:a:t=P:problem: repetycja taktu znakiem ÷	!	!	!	!	!
.	.	.	8qqaa/	.	.	.
8C/L	16e/LL	.	8gg\L	.	8gg\L	-da-
.	16g/	.	.	.	.	.
.	.	.	8qqff/	.	.	.
8C/	16e/	.	8ee\	.	8ee\	.
.	16g/	.	.	.	.	.
.	.	.	8qqdd/	.	.	.
8C/J	16e/	.	8cc\J	.	8cc\J	-mus
.	16g/JJ	.	.	.	.	.
*Xtremolo	*Xrep	*	*	*	*	*
=68	=68	=68	=68	=68	=68	=68
8r	16f/LL	.	8cc#X\L	.	8cc#X\L	te
.	16g/	.	.	.	.	.
8D/L	16f/	.	8dd\J	.	8dd\J	.
.	16g/	.	.	.	.	.
8D/J	16f/	.	16dd\LL	.	8r	.
.	16g/JJ	.	16cc#X\JJ	.	.	.
=69	=69	=69	=69	=69	=69	=69
*tremolo	*rep	*	*	*	*	*
!	!LO:TX:a:t=P:problem: repetycja taktu znakiem ÷	!	!	!	!LO:TX:a:t=1	!
8D/L	16f/LL	.	4.dd\	.	4.r	.
.	16g/	.	.	.	.	.
8D/	16f/	.	.	.	.	.
.	16g/	.	.	.	.	.
8D/J	16f/	.	.	.	.	.
.	16g/JJ	.	.	.	.	.
*Xtremolo	*Xrep	*	*	*	*	*
=70	=70	=70	=70	=70	=70	=70
8r	16d/LL	.	4b\	.	4b\	La-
.	16g/	.	.	.	.	.
8GG/L	16d/	.	.	.	.	.
.	16g/	.	.	.	.	.
8GG/J	16d/	.	8b\	.	8b\	-u-
.	16g/JJ	.	.	.	.	.
=71	=71	=71	=71	=71	=71	=71
*tremolo	*rep	*	*	*	*	*
!	!LO:TX:a:t=P:problem: repetycja taktu znakiem ÷	!	!	!	!	!
.	.	.	8qqgg/	.	.	.
8GG/L	16d/LL	.	8ff\L	.	8ff\L	-da-
.	16g/	.	.	.	.	.
.	.	.	8qqee/	.	.	.
8GG/	16d/	.	8dd\	.	8dd\	.
.	16g/	.	.	.	.	.
.	.	.	8qqcc/	.	.	.
8GG/J	16d/	.	8b\J	.	8b\J	-mus
.	16g/JJ	.	.	.	.	.
*Xtremolo	*Xrep	*	*	*	*	*
!	!LO:LB:g=original	!	!	!	!	!
=72	=72	=72	=72	=72	=72	=72
8r	16e/LL	.	8b\L	.	8b\L	te.
.	16g/	.	.	.	.	.
8C/L	(16e/	.	8ccn\J	.	8ccn\J	.
.	16g/	.	.	.	.	.
8C/J	16e/)	.	16cc\LL	.	8r	.
.	16g/JJ	.	16b\JJ	.	.	.
=73	=73	=73	=73	=73	=73	=73
*tremolo	*rep	*	*	*	*	*
!	!LO:TX:a:t=P:problem: repetycja taktu znakiem ÷	!	!	!	!LO:TX:a:t=1	!
8C/L	16e/LL	.	4.cc\	.	4.r	.
.	16g/	.	.	.	.	.
8C/	(16e/	.	.	.	.	.
.	16g/	.	.	.	.	.
8C/J	16e/)	.	.	.	.	.
.	16g/JJ	.	.	.	.	.
*	*Xrep	*	*	*	*	*
=74	=74!|:	=74	=74!|:	=74	=74	=74
8GG/L	4.b\	.	4.dd\	.	8dd\	te
8GG/	.	.	.	.	8dd\	glo-
8GG/J	.	.	.	.	8dd\	-ri-
!	!	!	!	!	!LO:LB:g=original	!
=75	=75	=75	=75	=75	=75	=75
8GG/L	8b|\L	.	8dd|\L	.	8dd\	-fi-
8GG/	(8g\	.	8b|\	.	8b\	-ca-
8GG/J	8a\J)	.	8cc|\J	.	8cc\	-mus
*Xtremolo	*	*	*	*	*	*
=76	=76	=76	=76	=76	=76	=76
8GG/	8b\L	.	8dd|\L	.	8dd\	te
!LO:N:vis=4	!	!	!	!	!	!
8r	8gg\	.	8bb|\	.	8r	.
!LO:N:vis=4	!	!	!	!	!	!
8r	8ff\J	.	8aa'\J	.	8r	.
!LO:LB:g=original	!	!	!LO:LB:g=original	!	!	!
=77	=77	=77	=77	=77	=77	=77
!LO:TX:a:t=1.	!	!	!	!	!LO:TX:a:t=1	!
4.r	8ee\L	.	8gg\L	.	4.r	.
.	8dd\	.	8ffX\	.	.	.
.	8cc\J	.	8ee\J	.	.	.
=78	=78:|!	=78	=78:|!	=78	=78	=78
*tremolo	*	*	*	*	*	*
!	!LO:TX:a:t=P:problem: repetycja tt.74-77	!	!LO:TX:a:t=P:problem: repetycja tt.74-77	!	!	!
8GG/L	4.b\yy	.	4.dd\yy	.	8dd\	te
8GG/	.	.	.	.	8dd\	glo
8GG/J	.	.	.	.	8dd\	ri-
=79	=79	=79	=79	=79	=79	=79
8GG/L	8b|/Lyy	.	8dd|\Lyy	.	8dd\	-fi-
8GG/	(yy8g/yy	.	8b|\yy	.	8b\	-ca-
8GG/J	8a/J)yyyy	.	8cc|\Jyy	.	8cc\	-mus
*Xtremolo	*	*	*	*	*	*
=80	=80	=80	=80	=80	=80	=80
8GG/	8b\Lyy	.	8dd|\Lyy	.	8dd\	te
8r	8gg\yy	.	8bb|\yy	.	8r	.
8r	8ff\Jyy	.	8aa'\Jyy	.	8r	.
=81	=81	=81	=81	=81	=81	=81
!LO:TX:a:t=1.	!	!	!	!	!LO:TX:a:t=1	!
4.r	8ee\Lyy	.	8gg\Lyy	.	4.r	.
.	8dd\yy	.	8ffX\yy	.	.	.
.	8cc\Jyy	.	8ee\Jyy	.	.	.
=82	=82	=82	=82	=82	=82	=82
*tremolo	*	*	*	*	*	*
8C/L	8.cc\L	.	8.ee\L	.	8.ee\	Gra-
8C/	.	.	.	.	.	.
.	16cc\K	.	16ee\K	.	16ee\	-ti-
8C/J	8cc\J	.	8ee\J	.	8ee\	-as
*Xtremolo	*	*	*	*	*	*
=83	=83	=83	=83	=83	=83	=83
8C/	8cc\L	.	8ee\L	.	8ee\	a-
8r	8ee\	.	8gg\	.	8gg\	-gi-
8r	8ee\J	.	8gg\J	.	8gg\	-mus
=84	=84	=84	=84	=84	=84	=84
*tremolo	*	*	*	*	*	*
8GG/L	8.b\L	.	8.dd\L	.	8.dd\	Gra-
8GG/	.	.	.	.	.	.
.	16b\K	.	16dd\K	.	16dd\	-ti-
8GG/J	8b\J	.	8dd\J	.	8dd\	-as
*Xtremolo	*	*	*	*	*	*
!	!	!	!	!	!LO:LB:g=original	!
=85	=85	=85	=85	=85	=85	=85
8GG/	8b\L	.	8dd\L	.	8dd\	a-
8r	8ee\	.	8gg\	.	8gg\	-gi-
8r	8ee\J	.	8gg\J	.	8gg\	-mus
=86	=86	=86	=86	=86	=86	=86
*	*tremolo	*	*	*	*	*
8F\L	8a/L	.	8cc\L	.	8cc\	a-
8D\	8a/	.	8cc\	.	8cc\	-gi-
8F\J	8a/J	.	8cc\J	.	8cc\	-mus
*	*Xtremolo	*	*	*	*	*
!LO:LB:g=original	!	!	!	!	!	!
=87	=87	=87	=87	=87	=87	=87
8G\L	8g/L	.	8b\L	.	8b\L	ti-
8D\J	8f#/J	.	8a\J	.	8a\J	-bi
8r	8r	.	8r	.	8r	.
=88	=88!|:	=88	=88	=88	=88	=88
8G\	4b/	.	4dd\	.	4dd\	pro-
8r	.	.	.	.	.	.
8G\	16g/LL	.	16b\LL	.	16b\LL	-pter
.	16b/JJ	.	16dd\JJ	.	16dd\JJ	.
=89	=89	=89	=89	=89	=89	=89
8G\L	16b/LL	.	16dd\LL	.	16dd\LL	ma-
.	16a/JJ	.	16cc\JJ	.	16cc\JJ	.
8D\	4a/	.	4cc\	.	4cc\	-g(n)am
8D\J	.	.	.	.	.	.
=90	=90	=90	=90	=90	=90	=90
8D\	4a/	.	4cc\	.	4cc\	glo-
8r	.	.	.	.	.	.
8D\	16f/LL	.	16a\LL	.	16a\LL	-ri-
.	16a/JJ	.	16cc\JJ	.	16cc\JJ	-am
=91	=91	=91	=91	=91	=91	=91
8D/L	16a/LL	.	16cc\LL	.	16cc\LL	tu-
.	16g/JJ	.	16b\JJ	.	16b\JJ	.
8GG/	4g/	.	4b\	.	4b\	-am
8GG/J	.	.	.	.	.	.
=92	=92:|!	=92	=92	=92	=92	=92
!	!LO:TX:a:t=P:problem: repetycja tt. 87-91	!	!	!	!	!
8G\	4b/yy	.	8.dd\	.	4dd\	pro-
8r	.	.	.	.	.	.
.	.	.	16g'/LL	.	.	.
8G\	16g/LLyy	.	16b'/	.	16b\LL	-pter
.	16b/JJyy	.	16dd'/JJ	.	16dd\JJ	.
=93	=93	=93	=93	=93	=93	=93
8G\L	16b/LLyy	.	16dd\LL	.	16dd\LL	ma-
.	16a/JJyy	.	16cc\JJ	.	16cc\JJ	.
8D\	4a/yy	.	4ccT\	.	4cc\	-g(n)am
8D\J	.	.	.	.	.	.
=94	=94	=94	=94	=94	=94	=94
8D\	4a/yy	.	8.cc\	.	4cc\	Glo-
8r	.	.	.	.	.	.
.	.	.	16f'/LL	.	.	.
8D\	16f/LLyy	.	16a'/	.	16a\LL	-ri-
.	16a/JJyy	.	16cc'/JJ	.	16cc\JJ	-am
!	!	!	!	!	!LO:LB:g=original	!
=95	=95	=95	=95	=95	=95	=95
8D/L	16a/LLyy	.	16cc\LL	.	16cc\LL	tu-
.	16g/JJyy	.	16b\JJ	.	16b\JJ	.
8GG/	4g/yy	.	4bt\	.	4b\	-am.
8GG/J	.	.	.	.	.	.
!LO:LB:g=original	!	!	!	!	!	!
=96	=96	=96	=96	=96	=96	=96
8GG/	16g/LL	.	16b\LL	.	1.r	.
.	16a/	.	(16cc\	.	.	.
8r	(16a/	.	16cc\	.	.	.
.	16b/	.	16dd\JJ)	.	.	.
8r	16b/)	.	(16dd\LL	.	.	.
.	16cc/JJ	.	16ee\JJ)	.	.	.
!	!	!	!LO:LB:g=original	!	!	!
=97	=97	=97	=97	=97	=97	=97
8GG/	(16cc\LL	.	16ee\LL	.	.	.
.	16dd\	.	(16ffn\	.	.	.
8r	16dd\	.	16ff\	.	.	.
.	16f\)	.	16dd\	.	.	.
8r	16f\	.	16ee\	.	.	.
.	16d\JJ	.	16cc\JJ)	.	.	.
!	!LO:LB:g=original	!	!	!	!	!
=98	=98	=98	=98	=98	=98	=98
!	!	!	!LO:TX:a:t=P:problem: mixed beam	!	!	!
8r	16e/LL	f	16cc|\LL	.	.	.
.	16g/	.	16c'/	.	.	.
!LO:TX:a:t=P:problem: mixed beam	!	!	!	!	!	!
8c\L	16e/	.	16e'/	.	.	.
.	16g/	.	16g'/	.	.	.
8C/J	16e/	.	16cc'/	.	.	.
.	16g/JJ	.	16ee'/JJ	.	.	.
=99	=99	=99	=99	=99	=99	=99
!	!	!	!LO:TX:a:t=P:problem: mixed beam	!	!	!
8r	16f/LL	.	16dd|\LL	.	.	.
.	16g/	.	16g'/	.	.	.
!LO:TX:a:t=P:problem: mixed beam	!	!	!	!	!	!
8G\L	16f/	.	16b'/	.	.	.
.	16g/	.	16dd'/	.	.	.
8GG/J	16f/	.	16ff'/	.	.	.
.	16g/JJ	.	16dd'/JJ	.	.	.
=100	=100	=100	=100	=100	=100	=100
*tremolo	*	*	*	*	*	*
8C/L	16e/LL	.	(16ee\LL	.	1.r	.
.	16g/	.	16cc\	.	.	.
8C/	16e/	.	16b\	.	.	.
.	16g/	.	16cc\	.	.	.
8C/J	16e/	.	16aa\)	.	.	.
.	16g/JJ	.	16gg\JJ	.	.	.
*Xtremolo	*	*	*	*	*	*
=101	=101	=101	=101	=101	=101	=101
8C/L	16ff\LL	.	(16gg\LL	.	.	.
.	16gg\JJ	.	16aa\JJ)	.	.	.
8GG/	8dd'\L	.	8ff|\L	.	.	.
8GG/J	8b'\J	.	8dd|\J	.	.	.
=102	=102	=102	=102	=102	=102	=102
*tremolo	*	*	*	*	*	*
8C/L	16e/LL	.	16ee\LL	.	.	.
.	16g/	.	(16cc\	.	.	.
8C/	16e/	.	16b\	.	.	.
.	16g/	.	16cc\	.	.	.
8C/J	16e/	.	16aa\	.	.	.
.	16g/JJ	.	16gg\JJ)	.	.	.
*Xtremolo	*	*	*	*	*	*
=103	=103	=103	=103	=103	=103	=103
8C/L	(16ff\LL	.	8.gg\L	.	.	.
.	16gg\JJ)	.	.	.	.	.
8GG/	8dd'\L	.	.	.	.	.
.	.	.	16aa\Jk	.	.	.
!	!	!	!LO:N:vis=8	!	!	!
!	!	!	!LO:TX:a:t=f	!	!	!
8GG/J	8b|\J	.	16ff'\LL	.	.	.
!	!	!	!LO:N:vis=8	!	!	!
.	.	.	16dd'\JJ	.	.	.
=104	=104	=104	=104	=104	=104	=104
16C\LL	8cc\L	.	8ee\L	.	2.r	.
16c\	.	.	.	.	.	.
16B\	8ee\	.	8ccc\	.	.	.
16c\	.	.	.	.	.	.
16G\	8ee\J	.	8ccc\J	.	.	.
16E\JJ	.	.	.	.	.	.
=105	=105	=105	=105	=105	=105	=105
!	!	!	!	!	!LO:TX:b:t=69.	!
4C/	4ee;\	.	4ccc\	.	.	.
!	!	!	!LO:TX:a:t=69.	!	!	!
8r	8r	.	8r	.	.	.
!LO:PB:g=original	!	!	!	!	!	!
=106||	=106||	=106||	=106||	=106||	=106||	=106||
*k[f#]	*k[f#]	*	*k[f#]	*	*k[f#]	*
*M3/4	*M3/4	*	*M3/4	*	*M3/4	*
*tremolo	*	*	*	*	*	*
!LO:TX:a:t=ada-\ngio	!LO:TX:b:t=Cum Sancto	!	!LO:TX:b:t=Cum Sancto	!	!	!
!LO:TX:a:t=Cum Sancto.	!LO:TX:a:t=adagio	!	!LO:TX:a:t=adagio	!	!LO:TX:a:t=adagio	!
8GG/L	4b\	.	4dd\	.	4dd\	Cum
8GG/	.	.	.	.	.	.
8GG/	8b\L	.	8gg\L	.	8gg\L	San-
8GG/	8dd\	.	8ff#\	.	8ff#\	.
8GG/	8cc\	.	8ee\	.	8ee\	-cto
8GG/J	8b\J	.	8dd\J	.	8dd\J	.
=107	=107	=107	=107	=107	=107	=107
8GG/L	4.b/	.	4.dd\	.	4.dd\	Spi-
8GG/	.	.	.	.	.	.
8GG/	.	.	.	.	.	.
8GG/	8a/	.	8cc\	.	8cc\	-ri-
8GG/	4g/	.	4b\	.	4b\	-tu
8GG/J	.	.	.	.	.	.
!	!	!	!LO:LB:g=original	!	!	!
=108	=108	=108	=108	=108	=108	=108
8D/L	4a/	.	4cc\	.	4cc\	Cum
8D/	.	.	.	.	.	.
8D/	8a/L	.	8aa\L	.	8aa\L	San-
8D/	8a/	.	8ff#\	.	8ff#\	.
8D/	8g/	.	8cc\	.	8cc\	-cto
8D/J	8f#/J	.	8b\J	.	8b\J	.
*Xtremolo	*	*	*	*	*	*
!	!LO:LB:g=original	!	!	!	!	!
=109	=109	=109	=109	=109	=109	=109
4G\	8.g/L	.	8.b\L	.	8.b\L	Spi-
.	16g/Jk	.	16b\Jk	.	16b\Jk	-ri-
4D\	4f#;/	.	4a;/	.	4a;\	-tu.
!	!LO:TX:a:t=4	!	!LO:TX:b:t=4.	!	!LO:TX:b:t=4.	!
4r	4r	.	4r	.	4r	.
=110||	=110||	=110||	=110||	=110||	=110||	=110||
*M2/2	*M2/2	*	*M2/2	*	*M2/2	*
*met(c|)	*met(c|)	*	*met(c|)	*	*met(c|)	*
!LO:TX:a:t=Allo.	!LO:TX:b:t=In gloria	!	!LO:TX:b:t=In gloria Dei Patris.	!	!	!
!LO:TX:a:t=In Gloria.	!LO:TX:a:t=allo	!	!LO:TX:a:t=allo.	!	!LO:TX:a:t=allo.	!
2GG/	2b\	.	2dd\	.	2dd\	In
2G\	4b\	.	4dd\	.	4dd\	glo-
.	4b\	.	4dd\	.	4dd\	-ria
=111	=111	=111	=111	=111	=111	=111
2G\	(4b\	.	4dd\	.	4dd\	de-
.	4cc\)	.	4ee\	.	4ee\	-i
2r	(4a\	.	4ff#\	.	4ff#\	Pa-
.	4b\)	.	4gg\	.	4gg\	-tris
=112	=112	=112	=112	=112	=112	=112
2C/	2cc\	.	2ee\	.	2ee\	a-
2c\	2cc\	.	2ee\	.	2ee\	-men
!LO:LB:g=original	!	!	!	!	!	!
=113	=113	=113	=113	=113	=113	=113
*	*	*	*	*	*	*ij
2c\	4cc\	.	4ee\	.	4ee\	de-
.	4cc\	.	4ee\	.	4ee\	-i
2r	4dd\	.	4ff#\	.	4ff#\	Pa-
.	4ee\	.	4gg\	.	4gg\	-tris
*	*	*	*	*	*	*Xij
!	!	!	!	!	!LO:LB:g=original	!
=114	=114	=114	=114	=114	=114	=114
4d\	4b/	.	4dd|\	.	4dd\	a-
4B\	4g/	.	4b|\	.	4b\	.
4c\	4a/	.	4cc|\	.	4cc\	.
4A\	4f#/	.	4a|\	.	4a\	.
=115	=115	=115	=115	=115	=115	=115
4B\	4d/	.	4b'\	.	4b\	.
4G\	4B/	.	4g'\	.	4g\	.
4A\	4c/	.	4a'\	.	4a\	.
4F#\	4A/	.	4f#'\	.	4f#\	.
=116	=116	=116	=116	=116	=116	=116
2G\	4g/	.	4g/	.	2g/	-men
.	4b/	.	4b/	.	.	.
2r	4cc/	.	4cc/	.	2r	.
.	4cc#X/	.	4cc#X/	.	.	.
=117	=117	=117	=117	=117	=117	=117
!	!	!	!	!	!LO:TX:a:t=1	!
2G\	(4b\	.	4dd\	.	1r	.
.	4cc\)	.	4ee\	.	.	.
2r	(4a\	.	4ff#\	.	.	.
.	4cc\)	.	4gg\	.	.	.
=118	=118	=118	=118	=118	=118	=118
4d\	4b\	.	4dd\	.	4dd\	a-
4B\	4g/	.	4b\	.	4b\	.
4c\	4a/	.	4cc\	.	4cc\	.
4A\	4f#/	.	4a\	.	4a\	.
=119	=119	=119	=119	=119	=119	=119
4B\	4d/	.	4b/	.	4b\	.
4G\	4B/	.	4g/	.	4g\	.
4A\	4c/	.	4a/	.	4a\	.
4F#\	4A/	.	4f#/	.	4f#\	.
!	!	!	!LO:PB:g=original	!	!	!
=120	=120	=120	=120	=120	=120	=120
2GG/	4g/	.	4g/	.	2g/	-men
.	4g/	.	4g/	.	.	.
2G\	4f#/	.	4a/	.	2r	.
.	4g/	.	4b/	.	.	.
=121	=121	=121	=121	=121	=121	=121
!	!	!	!	!	!LO:TX:a:t=11.	!
2GG/	4a'/	.	4cc/	.	00r	.
.	4b'/	.	4dd/	.	.	.
2G\	4cc'/	.	4ee/	.	.	.
.	4dd'/	.	4ff#/	.	.	.
!LO:LB:g=original	!	!	!	!	!	!
=122	=122	=122	=122	=122	=122	=122
2GG/	4b'\	.	4gg\	.	.	.
.	4b'\	.	4dd\	.	.	.
2G\	4cc'\	.	4ee\	.	.	.
.	4dd'\	.	4ff#\	.	.	.
!	!LO:LB:g=original	!	!	!	!	!
=123	=123	=123	=123	=123	=123	=123
2GG/	4ee'\	.	4gg\	.	.	.
.	4ff#'\	.	4aa\	.	.	.
2G\	4gg'\	.	4bb\	.	.	.
.	4aa'\	.	4ccc\	.	.	.
=124	=124	=124	=124!|:	=124	=124	=124
4G\	4bb\	.	4ddd\	.	.	.
4D\	4gg\	.	4bb\	.	.	.
4G\	4b\	.	4gg\	.	.	.
4D\	4gg\	.	4bb\	.	.	.
=125	=125	=125	=125	=125	=125	=125
4F#\	4aa\	.	4ccc\	.	00r	.
4D\	4ff#\	.	4aa\	.	.	.
4F#\	4dd\	.	4ff#\	.	.	.
4D\	4ff#\	.	4aa\	.	.	.
=126	=126	=126	=126:|!	=126	=126	=126
!	!	!	!LO:TX:a:t=P:problem: repetycja tt.124-125	!	!	!
4G\	4bb\	.	4ddd\yy	.	.	.
4D\	4gg\	.	4bb\yy	.	.	.
4G\	4b\	.	4gg\yy	.	.	.
4D\	4gg\	.	4bb\yy	.	.	.
=127	=127	=127	=127	=127	=127	=127
4F#\	4aa\	.	4ccc\yy	.	.	.
4D\	4ff#\	.	4aa\yy	.	.	.
4F#\	4dd\	.	4ff#\yy	.	.	.
4D\	4ff#\	.	4aa\yy	.	.	.
=128	=128	=128	=128	=128	=128	=128
2GG/	4gg\	.	4bb\	.	.	.
.	4bb\	.	4ddd\	.	.	.
2G\	4r	.	4r	.	.	.
.	4b\	.	4gg\	.	.	.
=129	=129	=129	=129	=129	=129	=129
2F#\	4r	.	4r	.	0r	.
.	4ff#\	.	4aa\	.	.	.
2D\	4r	.	4r	.	.	.
.	4aa\	.	4ccc\	.	.	.
=130	=130	=130	=130	=130	=130	=130
2G\	4gg\	.	4bb\	.	.	.
.	4bb\	.	4ddd\	.	.	.
2G\	4r	.	4r	.	.	.
.	4b\	.	4gg\	.	.	.
!LO:LB:g=original	!	!	!	!	!	!
=131	=131	=131	=131	=131	=131	=131
2F#\	4r	.	4r	.	1r	.
.	4ff#'\	.	4aa\	.	.	.
2D\	4r	.	4r	.	.	.
.	4aa'\	.	4ccc\	.	.	.
=132	=132	=132	=132	=132	=132	=132
2GG/	4r	.	4r	.	2bb\	a-
.	4gg'\	.	4bb\	.	.	.
2G\	4r	.	4r	.	2gg\	.
.	4b\	.	4gg\	.	.	.
=133	=133	=133	=133	=133	=133	=133
2D/	4r	.	4r	.	2aa\	.
.	4cc'\	.	4aa\	.	.	.
2DD/	4r	.	4r	.	2ff#\	.
.	4a|/	.	4ff#\	.	.	.
=134	=134	=134	=134	=134	=134	=134
4GG/	4b'\	.	4gg|\	.	4gg\	-men
4D/	4b'\	.	4dd|\	.	4r	.
4E/	4cc'\	.	4ee|\	.	2r	.
4F#/	4dd'\	.	4ff#|\	.	.	.
!	!	!	!LO:LB:g=original	!	!	!
=135	=135	=135	=135	=135	=135	=135
!	!	!	!	!	!LO:TX:a:t=1	!
4G\	4ee'\	.	4gg\	.	1r	.
4A\	4ff#'\	.	4aa\	.	.	.
4B\	4gg'\	.	4bb\	.	.	.
4c\	4aa'\	.	4ccc\	.	.	.
!	!LO:LB:g=original	!	!	!	!	!
=136	=136	=136	=136	=136	=136	=136
2G\	4r	.	4r	.	2bb\	a-
.	4gg'\	.	4bb\	.	.	.
2GG/	4r	.	4r	.	2gg\	.
.	4b'/	.	4gg\	.	.	.
=137	=137	=137	=137	=137	=137	=137
2D\	4r	.	4r	.	2aa\	.
.	4cc'/	.	4aa\	.	.	.
2DD/	4r	.	4r	.	2ff#\	.
.	4a|/	.	4ff#\	.	.	.
=138	=138	=138	=138	=138	=138	=138
2GG/	4b/	.	4gg\	.	4gg\	-men.
.	4r	.	4r	.	4r	.
!	!LO:TX:a:t=29.	!	!LO:TX:b:t=29.	!	!LO:TX:b:t=29.	!
2r	2r	.	2r	.	2r	.
==	==	==	==	==	==	==
*-	*-	*-	*-	*-	*-	*-
!!!system-decoration: s1[(s2,s3)]s4
!!!RDF**kern: > = above
!!!RDF**kern: < = below
!!!RDF**dynam: p = p.
!!!RDF**dynam: pp = pp.
!!!RDF**dynam: f = for.
!!!RDF**kern: | = vertical stroke
!!!ENC: Krzysztof Stępień
!!!END: 2020-05-05
!!!ENC: Leszek Kubiak
!!!END: 2021-12-31
